libs/icons/src/svg/circle-8.svg

<svg width="16" height="16" viewBox="0 0 16 16" fill="none" xmlns="http://www.w3.org/2000/svg">
<g clip-path="url(#clip0_4_381)">
<path fill-rule="evenodd" clip-rule="evenodd" d="M16 8C16 12.4183 12.4183 16 8 16C3.58172 16 0 12.4183 0 8C0 3.58172 3.58172 0 8 0C12.4183 0 16 3.58172 16 8ZM14.6666 8.00002C14.6666 11.6819 11.6819 14.6667 7.99995 14.6667C4.31806 14.6667 1.33329 11.6819 1.33329 8.00002C1.33329 4.31812 4.31806 1.33335 7.99995 1.33335C11.6819 1.33335 14.6666 4.31812 14.6666 8.00002ZM10.749 9.72339C10.7454 10.9192 9.60709 11.7953 8.01632 11.7953C6.41118 11.7953 5.27645 10.9192 5.28004 9.72339C5.27645 8.80412 5.94795 8.03566 6.81695 7.89203V7.84175C6.05927 7.67657 5.54936 7.00866 5.55295 6.21148C5.54936 5.07675 6.59073 4.24007 8.01632 4.24007C9.43114 4.24007 10.4725 5.08034 10.4761 6.21148C10.4725 7.00866 9.95541 7.67657 9.21209 7.84175V7.89203C10.0667 8.03566 10.7454 8.80412 10.749 9.72339ZM6.65177 9.63003C6.64459 10.3087 7.18323 10.7683 8.01632 10.7683C8.83864 10.7683 9.37368 10.3087 9.38086 9.63003C9.37368 8.9298 8.79914 8.42707 8.01632 8.42707C7.22273 8.42707 6.64459 8.92621 6.65177 9.63003ZM6.85286 6.33716C6.84568 6.97634 7.33404 7.41803 8.01632 7.41803C8.68782 7.41803 9.17259 6.97994 9.17977 6.33716C9.17259 5.70516 8.70218 5.28144 8.01632 5.28144C7.31968 5.28144 6.84568 5.70516 6.85286 6.33716Z" fill="#202327"/>
</g>
<defs>
<clipPath id="clip0_4_381">
<rect width="16" height="16" fill="white"/>
</clipPath>
</defs>
</svg>

<svg xmlns="http://www.w3.org/2000/svg" viewBox="0 0 16 16" class="sageicon"><path fill-rule="evenodd" d="M16 8A8 8 0 1 1 0 8a8 8 0 0 1 16 0Zm-1.333 0A6.667 6.667 0 1 1 1.333 8a6.667 6.667 0 0 1 13.334 0Zm-3.918 1.723c-.004 1.196-1.142 2.072-2.733 2.072-1.605 0-2.74-.876-2.736-2.072a1.851 1.851 0 0 1 1.537-1.831v-.05c-.758-.165-1.268-.833-1.264-1.63C5.549 5.076 6.591 4.24 8.016 4.24c1.415 0 2.457.84 2.46 1.971-.004.798-.52 1.466-1.264 1.63v.051a1.872 1.872 0 0 1 1.537 1.831ZM6.652 9.63c-.007.679.531 1.138 1.364 1.138.823 0 1.358-.46 1.365-1.138-.007-.7-.582-1.203-1.365-1.203-.793 0-1.371.5-1.364 1.203Zm.2-3.293c-.006.64.482 1.081 1.164 1.081.672 0 1.157-.438 1.164-1.08-.007-.633-.478-1.057-1.164-1.057-.696 0-1.17.424-1.163 1.056Z"/></svg>
